Assets/img/icons/search.svg

<svg xmlns="http://www.w3.org/2000/svg" width="24" height="24" viewBox="0 0 24 24"><path d="M15.5 14h-.79l-.28-.27C15.41 12.59 16 11.11 16 9.5 16 5.91 13.09 3 9.5 3S3 5.91 3 9.5 5.91 16 9.5 16c1.61 0 3.09-.59 4.23-1.57l.27.28v.79l5 4.99L20.49 19l-4.99-5zm-6 0C7.01 14 5 11.99 5 9.5S7.01 5 9.5 5 14 7.01 14 9.5 11.99 14 9.5 14z"/><path d="M0 0h24v24H0z" fill="none"/></svg>

<?xml version="1.0" standalone="no"?><!-- Generator: Gravit.io --><svg xmlns="http://www.w3.org/2000/svg" xmlns:xlink="http://www.w3.org/1999/xlink" style="isolation:isolate" viewBox="0 0 24 24" width="24" height="24"><defs><clipPath id="_clipPath_vQWaPWMwRpw7AC17svrmXCAYm1zS0jyn"><rect width="24" height="24"/></clipPath></defs><g clip-path="url(#_clipPath_vQWaPWMwRpw7AC17svrmXCAYm1zS0jyn)"><path d=" M 15.5 14 L 14.71 14 L 14.43 13.73 C 15.41 12.59 16 11.11 16 9.5 C 16 5.91 13.09 3 9.5 3 C 5.91 3 3 5.91 3 9.5 C 3 13.09 5.91 16 9.5 16 C 11.11 16 12.59 15.41 13.73 14.43 L 14 14.71 L 14 15.5 L 19 20.49 L 20.49 19 L 15.5 14 L 15.5 14 Z  M 9.5 14 C 7.01 14 5 11.99 5 9.5 C 5 7.01 7.01 5 9.5 5 C 11.99 5 14 7.01 14 9.5 C 14 11.99 11.99 14 9.5 14 Z " fill="rgb(255,255,255)"/><path d=" M 0 0 L 24 0 L 24 24 L 0 24 L 0 0 Z " fill="none"/></g></svg>
